X:1
T:Creator alme siderum
T:C. Rossini "Cantate Domino" (for 3 equal voices) for SATB arr. A. Solims 
T:Vespers Hymn of Advent time
T:Creator alme siderum
C:C. Rossini
C:"Cantate Domino"
C:(for 3 equal voices)
C:for SATB arr. A. Solims
C:
Z:Vespers Hymn
Z:of Advent time
%%score { ( 1 2 ) | ( 3 4 ) }
L:1/8
Q:1/4=88
M:4/4
K:Eb
V:1 treble nm="P1"
V:2 treble 
V:3 bass 
V:4 bass 
V:1
!mf!"^Andantino" G2 | c2 e2 d2 c2 | c2 =B2 c2"^|" e2 | d2 B2 G2 cB | =A2 A2 G2"^|" Bc | %5
w: 6.|tus, ho- nor, laus,|glo- ri- a De-|o Pat- ri cum *|Fi- li- o, San- *|
w: 1.|a- tor al- me|si- de- rum, ae-|ter- na lux cre- *|den- ti- um, Je- *|
w: 2.|dae- mo- nis ne|frau- di- bus pe-|ri- ret or- bis, *|im- pe- tu a- *|
w: 3.|mu- ne qui mun-|dum ne- fas ut|ex- pi- a- res, _|ad cru- cem e _|
w: 4.|jus po- tes- tas|glo- ri- ae, no-|men- que cum pri- *|mum so- nat, et _|
w: 5.|de- pre- ca- mur|ul- ti- mae mag-|num di- e- i _|Iu- di- cem, ar- *|
"^-" d2 cd e2 B2 |"^-""^-""^-""^-""^-""^-" c3 c =B2"^|" B2 |!f! c2 c2 cd e2 | e2 d2 !fermata!e4 || %9
w: 6. si- * mul Pa-|rac- li- to, in|sae- cu- lo- * rum|sae- cu- la.|
w: 1. Re- * dem- ptor|om- ni- um, in-|ten- de vo- * tis|sup- pli- cum.|
w: 2. ris _ ac- tus,|lan- gui- di, mun-|di me- de- * las|fac- tus es.|
w: 3. gi- * nis sac-|ra- ri- o in-|tac- ta pro- * dis|vic- ti- ma.|
w: 4. li- * tes, et|in- fe- ri tre-|men- te cur- * van-|tur ge- nu.|
w: 5. su- * per- nae|gra- ti- ae de-|fen- de nos _ ab|hos- ti- bus.|
 c4 !fermata!B4 |] %10
w: A- men.|
w: |
w: |
w: |
w: |
w: |
[M:4/4]"^Gregorian version (these stanzas can be used alternatively instead of stanzas above either as gregorian or SATB)""^(ad libitum)" G2 | %11
w: 6.|
w: |
w: 2.|
w: |
w: 4.|
w: |
 E2 G2 B2 B2 | c2 A2 B2"^|" B2 | c2 A2 B2 A2 | G2 F2 !fermata!G2"^|" B2 | A2 F2 G2 A2 | %16
w: tus, ho- nor, laus,|glo- ri- a De-|o Pat- ri cum|Fi- li- o, San-|6. si- mul Pa-|
w: |||||
w: dae- mo- nis ne|frau- di- bus pe-|ri- ret or- bis,|im- pe- tu a-|2. ris ac- tus,|
w: |||||
w: jus po- tes- tas|glo- ri- ae, no-|men- que cum pri-|mum so- nat, et|4. li- tes, et|
w: |||||
 G2 F2 E2"^|" E2 | G2 A2 B2 A2 | G2 F2 !fermata!G2 || (GA"^-"G) (F2 !fermata!G2) |] %20
w: rac- li- to, in|sae- cu- lo- rum|sae- cu- la.|A- * * men. _|
w: ||||
w: lan- gui- di, mun-|di me- de- las|fac- tus es.||
w: ||||
w: in- fe- ri tre-|men- te cur- van-|tur ge- nu.||
w: ||||
V:2
 GF | E2 G2 A2 A2 | G2 F2 E2 G=A | _B2 F2 E2 E2 | D2 C2 B,2 G2 | A2 A2 G2 GF | ED EF G2 GF | %7
 EF GA A2 G2 | Fc BA G4 || E4 E4 |][M:4/4] G2 | E2 E2 D2 E2 | E2 E2 D2 E2 | E2 FE F2 D2 | %14
 E2 F2 E2 G2 | F2 D2 E2 E2 | D2 D2 C2 C2 | D2 D2 E2 E2 | D2 D2 E2 || E3 (D2 E2) |] %20
V:3
!mf! G,2 | G,2 C2 C2 D2 | E2 D2 C2"^|" C2 | B,2 B,2 B,2 G,2 | G,2 ^F,2 G,2"^|" G,=A, | %5
 B,2 B,2 B,2 B,2 | G,3 G, G,2"^|" D2 |!f! C2 C2 C2 CB, | A,2 B,2 B,4 || A,4 G,4 |][M:4/4] B,2 | %11
 G,2 B,2 B,2 B,2 | A,2 C2 B,2 B,2 | A,2 C2 B,2 B,2 | B,2 B,2 B,2"^|" _D2 | C2 C2 C2 C2 | %16
 =B,2 G,2 G,2 A,2 | _B,2 B,2 B,2 C2 | B,2 A,2 B,2 || B,CB, A,2 !fermata!B,2 |] %20
V:4
 G,2 | C,2 C,2 F,2 F,2 | G,2 G,2 C,2 C,2 | B,,2 D,2 E,2 C,2 | D,2 D,2 G,,2 G,2 | %5
 =F,2 F,2 E,2 E,D, | C,3 C, G,,2 G,2 | A,2 A,2 F,2 C,2 | F,2 B,,2 !fermata!E,4 || %9
 A,,4 !fermata!E,4 |][M:4/4] E,2 | E,2 E,2 F,2 G,2 | A,2 F,2 F,2 G,2 | A,2 F,2 D,2 B,,2 | %14
 C,2 D,2 !fermata!E,2 =E,2 | F,2 A,2 G,2 F,2 | G,2 =B,,2 C,2 C,2 | D,2 F,2 G,2 A,2 | %18
 B,2 B,,2 !fermata!E,2 || E,3 !fermata!E,4 |] %20

